svgs/mi_files.svg

<svg width="24" height="24" viewBox="0 0 24 24" fill="none" xmlns="http://www.w3.org/2000/svg">
<path fill-rule="evenodd" clip-rule="evenodd" d="M4 3H10L12 5H20C21.1 5 22 5.9 22 7L22 18.9929C22 20.0929 21.1 20.9929 20 20.9929H4C2.9 20.9929 2 20.0929 2 18.9929L2.01 5C2.01 3.9 2.9 3 4 3ZM8.26562 14H4.38867C4.34508 14 4.30859 14.0335 4.30859 14.0762V18.7227C4.30859 18.765 4.34508 18.7988 4.38867 18.7988H5.40625C5.44959 18.7988 5.48438 18.765 5.48438 18.7227V15.0762C5.48438 15.034 5.52086 15 5.56445 15H7.75781C8.37465 15 8.54883 15.4705 8.54883 15.7754V18.7227C8.54883 18.765 8.58532 18.7988 8.62891 18.7988H9.64648C9.68982 18.7988 9.72461 18.765 9.72461 18.7227V15.4258C9.72461 15.1538 9.6925 14.7639 9.3418 14.4199C8.97486 14.0606 8.63985 14 8.26562 14ZM11.7422 14H10.7246C10.681 14 10.6445 14.0335 10.6445 14.0762V18.7227C10.6445 18.765 10.681 18.7988 10.7246 18.7988H11.7422C11.7854 18.7988 11.8203 18.765 11.8203 18.7227V14.0762C11.8203 14.0335 11.7854 14 11.7422 14ZM7.55273 15.8496H6.48242C6.43883 15.8496 6.4043 15.8833 6.4043 15.9258V18.7227C6.4043 18.7648 6.43883 18.7988 6.48242 18.7988H7.55273C7.59597 18.7988 7.63086 18.7648 7.63086 18.7227V15.9258C7.63086 15.8833 7.59597 15.8496 7.55273 15.8496Z" fill="black"/>
<path d="M12 3H19C19.5523 3 20 3.44772 20 4V4H13L12 3Z" fill="black"/>
</svg>

<svg xmlns="http://www.w3.org/2000/svg" viewBox="0 0 24 24"><path d="M12 3.004h7a1 1 0 0 1 1 1h-7zm-8 0h6l2 2h8c1.1 0 2 .9 2 2v11.993c0 1.1-.9 2-2 2H4c-1.1 0-2-.9-2-2l.01-13.993c0-1.1.89-2 1.99-2m4.266 11H4.389a.078.078 0 0 0-.08.076v4.647c0 .042.036.076.08.076h1.017a.077.077 0 0 0 .078-.076V15.08c0-.042.037-.076.08-.076h2.194c.617 0 .79.47.79.775v2.948c0 .042.037.076.08.076h1.018a.077.077 0 0 0 .079-.076V15.43c0-.272-.032-.662-.383-1.006-.367-.36-.702-.42-1.076-.42m3.476 0h-1.017a.078.078 0 0 0-.08.076v4.647c0 .042.036.076.08.076h1.017a.077.077 0 0 0 .078-.076V14.08a.077.077 0 0 0-.078-.076m-4.19 1.85h-1.07a.077.077 0 0 0-.078.076v2.797c0 .042.035.076.078.076h1.07a.077.077 0 0 0 .079-.076V15.93a.077.077 0 0 0-.078-.076"/></svg>
